X: 1
T: Silent Night [C]
T: Stille Nacht
T: Glade Jul
C: Franz Gruber
Z: John Chambers <jc:trillian.mit.edu>
M: 6/8
L: 1/8
K: C
[| "C"[GE]>[AF][GE] [E3C3] | "C"[GE]>[AF][GE] [E3C3] \
| "G7"[d2G2][dG] [B2-F2-][BF] | "C"[c2E2][cE] [G3E3] \
|| "F"[A2F2][AF] [cA]>[BG][AF] | "C"[GE]>[AF][GE] [E3C3] |
|  "F"[A2F2][AF] [cA]>[BG][AF] | "C"[GE]>[AF][GE] [E3C3] \
|| "G7"[d2G2][dG] [fB]>[dG][BF] | "C"[c3E3] [e2G2]z \
| [cE2][GE][EC] "G7"[GB,]>[FD][DB,] | "C"[C3C3] z3 |]
